!!!COM: Jules Massenet
!!!CNT: Francais
!!!TXO: Francais
!!!OTL: "A deux pleurer!"
!!!LYR: Croze
!!!OPR: 
!!!OPS: Op. 
!!!ONM: No.
!!!ENC: Emily Thomas
!!!YOR: CD Sheet Music French Art Songs, The Ultimate Collection
!!!YOR: CD Sheet Music, LLC 2003
!!!ODT: 1899/
!!NB: Vocal melody and text encoded.
**kern	**silbe
=1	=1
*clefG2	*
*k[f#]	*
*M6/8	*
*MM[Assez lent.]	*
2.r	.
=2	=2
2.r	.
=3	=3
2.r	.
=4	=4
4r	.
8r	.
{8b-	{Com-
8a	-me
8d	vous
=5	=5
8g	dor-
8f#}	-miez,}
8r	.
{8f#	{je
8e	n'ai
8g	pas
=6	=6
8g	o-
8f#}	-se/}
8r	.
{8f#	{Heur-
8e	-ter
8b	a\
=7	=7
8b	la
8a	por-
8b}	-te,}
{8a	{J'ai,
8g	ti-
8e	-mi-
=8	=8
8g	-de-
8f#	-ment,
8d#	pour
8f#}	vous}
{8e	{de/-
8g	-po-
=9	=9
*MM[un pen anime/.]	*
8dn	-se/
16d	Ce
16e	pre-
16f#	-mier
16g	li-
8b	-las,
16f#	a\
16g	pei-
16a	-ne
16b	ro-
=10	=10
8dd}	-se/,}
{16g	{Que
16a	l'Av-
16b	-ril
16dd	m'ap-
[4.ff#	-por-
=11	=11
8ff#]	|
8a	|
8b	|
8dd	|
8cc	|
8f#}	-te.}
=12	=12
2.r	.
=13	=13
4r	.
8r	.
{8b	{Com-
8a	-me
8d	vous
=14	=14
8g	chan-
8f#}	-tiez}
8r	.
{8f#	{un
8e	air
8g	triste
=15	=15
8g	et
8f#}	las}
8r	.
{8f#	{En
8e	no-
8b	-tes
=16	=16
8b	jo-
8a	-li-
8b}	-es,}
8r	.
{16g	{Je
16g	me
16g	suis
16g	ca-
=17	=17
8g	-che/,
8f#}	|}
8r	.
8r	.
{16e	{je
16e	ne
16e	vou-
16g	-lais
=18	=18
8dn	pas
16d	Trou-
16e	-bler
16f#	d'un
16g	a-
8b	-veu,
16f#	me^-
16g	-me
16a	fait
16b	tout
=19	=19
8dd}	bas,}
{16g	{Vos
16a	me/-
16b	-lan-
16dd	-col-
[4.ee-	-i-
=20	=20
8ee-]	|
8dd	|
8ffq	|
8ee-	|
8dd	|
8cc	|
8f#}	-es.}
=21	=21
2.r	.
=22	=22
4r	.
8r	.
{8b	{Com-
8a	-me
8d	vous
=23	=23
8g	pleu-
8f#}	riez,}
8r	.
{8f#	{j'ai
8e}	dit:}
{8g	{Me
=24	=24
8g	voi-
8f#}	-ci.}
8r	.
{8f#	{Le
8e	cha-
8b	-grin
=25	=25
8b	ras-
8a	-sem-
8b}	-bleÖ}
8r	.
{16g	{Et
16g	me^-
16g	-lant
16g	ma
=26	=26
8g	pei-
8f#	-ne
8d#	a\
8f#	vo-
8e	-tre
8g	sou-
=27	=27
8dn}	-ci,}
{16d	{Nous
16e	a-
16f#	-vons
16g	con-
8b	-nu
16f#	le
16g	bon-
16a	-heur
16b	ain-
=28	=28
8dd}	-si,}
{16g	{En
16a	pleu-
16b	-rant
16dd	en-
[4.gg	-sem-
=29	=29
8gg]	|
8ffn	|
8ee-	|
8dd	|
8cc	|
8f#	|
=30	=30
4g}	-ble!}
8r	.
8r	.
8r	.
{8dd	{A
=31	=31
8dd	deux
[4cc	|
8cc]	|
16b	|
16r	.
8b	pleu-
=32	=32
[2.b	-rer!...
=33	=33
2.b]}	|}
==	==
*-	*-
